icons/folder_type_python_opened.svg

<svg xmlns="http://www.w3.org/2000/svg" viewBox="0 0 32 32"><defs><linearGradient id="a" x1="-132.23" x2="-132.18" y1="235.872" y2="235.822" gradientTransform="matrix(189.38 0 0 -189.81 25054.681 44783.902)" gradientUnits="userSpaceOnUse"><stop offset="0" stop-color="#387eb8"/><stop offset="1" stop-color="#366994"/></linearGradient><linearGradient id="b" x1="-132.549" x2="-132.492" y1="236.178" y2="236.128" gradientTransform="matrix(189.38 0 0 -189.81 25120.681 44848.152)" gradientUnits="userSpaceOnUse"><stop offset="0" stop-color="#ffe052"/><stop offset="1" stop-color="#ffc331"/></linearGradient></defs><path d="M27.4 5.5h-9.2l-2.1 4.2H4.3v4H.5l3.8 12.8h25.2v-21Zm-7.2 2.1h7.1v2.1h-8.1Zm5.5 6.1H6.6v-1.9h20.8v7.626Z" style="fill:#84ce7c"/><path d="M20.918 11.009c-5.072 0-4.751 2.206-4.751 2.206v2.293h4.823v.719h-6.744S11 15.825 11 21s2.866 4.968 2.866 4.968h1.655v-2.412a2.721 2.721 0 0 1 2.786-2.884h4.83a2.583 2.583 0 0 0 2.694-2.626v-4.378S26.24 11 20.944 11Zm-2.666 1.536a.872.872 0 1 1-.845.894v-.014a.87.87 0 0 1 .867-.873Z" style="fill:url(#a)"/><path d="M21.061 31c5.071 0 4.75-2.214 4.75-2.214V26.5h-4.822v-.72h6.765S31 26.145 31 21s-2.866-4.968-2.866-4.968h-1.677v2.384a2.721 2.721 0 0 1-2.786 2.884h-4.832a2.586 2.586 0 0 0-2.7 2.627v4.408S15.734 31 21.03 31h.031Zm2.665-1.544a.872.872 0 1 1 .845-.894v.022a.869.869 0 0 1-.867.872h.022Z" style="fill:url(#b)"/></svg>

<svg xmlns="http://www.w3.org/2000/svg" xmlns:xlink="http://www.w3.org/1999/xlink" viewBox="0 0 32 32"><defs><linearGradient id="a" x1="-132.23" y1="235.872" x2="-132.18" y2="235.822" gradientTransform="matrix(189.38, 0, 0, -189.81, 25054.681, 44783.902)" gradientUnits="userSpaceOnUse"><stop offset="0" stop-color="#387eb8"/><stop offset="1" stop-color="#366994"/></linearGradient><linearGradient id="b" x1="-132.549" y1="236.178" x2="-132.492" y2="236.128" gradientTransform="matrix(189.38, 0, 0, -189.81, 25120.681, 44848.152)" gradientUnits="userSpaceOnUse"><stop offset="0" stop-color="#ffe052"/><stop offset="1" stop-color="#ffc331"/></linearGradient></defs><title>folder_type_python_opened</title><path d="M27.4,5.5H18.2L16.1,9.7H4.3v4H.5L4.3,26.5H29.5V5.5ZM20.2,7.6h7.1V9.7H19.2Zm5.5,6.1H6.6V11.8H27.4v7.626Z" style="fill:#84ce7c"/><path d="M20.918,11.009c-5.072,0-4.751,2.206-4.751,2.206v2.293H20.99v.719H14.246S11,15.825,11,21s2.866,4.968,2.866,4.968h1.655V23.556a2.721,2.721,0,0,1,2.786-2.884h4.83a2.583,2.583,0,0,0,2.694-2.626V13.668S26.24,11,20.944,11h0Zm-2.666,1.536a.872.872,0,1,1-.845.894h0v-.014a.87.87,0,0,1,.867-.873h0Z" style="fill:url(#a)"/><path d="M21.061,31c5.071,0,4.75-2.214,4.75-2.214V26.5H20.989V25.78h6.765S31,26.145,31,21s-2.866-4.968-2.866-4.968H26.457v2.384A2.721,2.721,0,0,1,23.671,21.3H18.839a2.586,2.586,0,0,0-2.7,2.627v4.408S15.734,31,21.03,31h.031Zm2.665-1.544a.872.872,0,1,1,.845-.894h0v.022a.869.869,0,0,1-.867.872h.022Z" style="fill:url(#b)"/></svg>
